X:206
T:Oaken Leaves. (p)1670.PLFD.206
M:6/4
L:1/4
Q:3/4=90
S:Playford, Dancing Master,4th Ed.,1670.
O:England
H:1670.
Z:Chris Partingto
K:C
GGgg>dB|c>dBA2G|GGg^f2g|a>g^fg2G|
GGgg>dB|c>dBA2c|B>AG/^F/E2D|gg^fe2d:|
